build/payment/MirWhiteS.svg

<svg xmlns="http://www.w3.org/2000/svg" fill="none" viewBox="0 0 22 10" focusable="false"><path fill="none" d="M0 0H22V10H0z"/><path d="M0 0H22V10H0z"/><path fill="#FFF" fill-rule="evenodd" d="M7.38684 3C6.93013 3 6.52826 3.30242 6.40139 3.74153L5.65369 6.33367L5.52563 6.33367L4.77793 3.74153C4.65106 3.30242 4.24919 3 3.79248 3L2 3L2 8.64136L3.79451 8.64136L3.79451 5.30768L3.923 5.30768L4.94857 8.64136L6.23069 8.64136L7.25632 5.30768L7.38438 5.30768L7.38438 8.64136L9.17932 8.64136L9.17932 3L7.38684 3ZM13.1354 3.59586C13.3031 3.2325 13.6666 3 14.0668 3L15.59 3L15.59 8.64101L13.7951 8.64101L13.7951 5.30775L13.667 5.30775L12.4033 8.04515C12.2354 8.40851 11.8721 8.64101 11.4722 8.64101L9.94856 8.64101L9.94856 3L11.7436 3L11.7436 6.33325L11.8721 6.33325L13.1354 3.59586ZM16.1023 3C16.3437 4.31284 17.4924 5.30775 18.8748 5.30775L21.9614 5.30775C21.9863 5.18334 21.9998 5.05478 21.9998 4.923C21.9998 3.8611 21.1388 3 20.0769 3L16.1023 3ZM16.3594 8.64164L16.3594 5.56452L21.8887 5.56452C21.6243 6.31102 20.9143 6.84671 20.0774 6.84671L18.1507 6.84671L18.1507 8.64164L16.3594 8.64164Z"/></svg>

<svg xmlns="http://www.w3.org/2000/svg" fill="none" viewBox="0 0 22 10" focusable="false"><path fill="none" d="M0 0h22v10H0z"/><path fill="#FFF" fill-rule="evenodd" d="M7.38 3c-.45 0-.86.3-.98.74l-.75 2.59h-.13l-.75-2.59C4.65 3.3 4.24 3 3.79 3H2v5.64h1.79V5.3h.13l1.02 3.34h1.29L7.25 5.3h.13v3.34h1.79V3zm6.68 0c-.4 0-.76.23-.93.59l-1.26 2.74h-.13V3h-1.8v5.64h1.53c.4 0 .76-.24.93-.6l1.26-2.74h.13v3.34h1.8V3zm2.04 0c.24 1.31 1.39 2.3 2.77 2.3h3.09c.02-.12.03-.25.03-.38 0-1.06-.86-1.92-1.92-1.92zm.25 5.64V5.56h5.53c-.26.75-.97 1.28-1.81 1.28h-1.92v1.8z"/></svg>
